Adwaita++-Dark/actions/16/kstars_supernovae.svg

<svg height="16" viewBox="0 0 16 16" width="16" xmlns="http://www.w3.org/2000/svg">
  <path d="m15.810547 0c-.33111-.029-1.331541.33673438-1.681641.55273438-.78299.36519999-2.193628 1.10885942-3.861328 2.44335942.11437.0809999.227148.171925.335938.265625 1.5907-1.174 2.697468-1.6036719 3.042968-1.1386719.32403.4362-.254341 1.5080281-1.363281 2.9238281a5.0063 5.4049 0 0 0 -4.8749999-2.453125 5.0063 5.4049 0 0 0 -4.3046875 6.0683594 5.0063 5.4049 0 0 0 .3359375 1.3457026c-1.8811 2.430101-3.82969372 5.197154-3.37109372 5.814454.49605.6678 3.22615312-.641829 6.12695312-2.861328a5.0063 5.4049 0 0 0 2.53125.347656 5.0063 5.4049 0 0 0 4.3027345-6.0683596 5.0063 5.4049 0 0 0 -.230469-1.0351563c2.16-2.8602 3.584975-5.52766872 3.109375-6.16796872-.01616-.022-.050346-.03310938-.097656-.03710938zm-12.1875001 10.431641a5.0063 5.4049 0 0 0 1.5273437 1.904297c-1.4638 1.187599-2.5406594 1.756828-2.8808594 1.298828-.3375799-.4545.2035257-1.586125 1.3535157-3.203125z" fill="#e6ddff"/>
</svg>

<svg xmlns="http://www.w3.org/2000/svg" width="16" height="16" viewBox="0 0 16 16">
 <defs>
  <style id="current-color-scheme" type="text/css">
   .ColorScheme-Text { color:#E6DDFF; } .ColorScheme-Highlight { color:#4285f4; }
  </style>
 </defs>
 <path style="fill:currentColor" class="ColorScheme-Text" d="M 15.810547 0 C 15.479437 -0.029 14.479006 0.33673438 14.128906 0.55273438 C 13.345916 0.91793437 11.935278 1.6615938 10.267578 2.9960938 C 10.381948 3.0770937 10.494726 3.1680188 10.603516 3.2617188 C 12.194216 2.0877188 13.300984 1.6580469 13.646484 2.1230469 C 13.970514 2.5592469 13.392143 3.631075 12.283203 5.046875 A 5.0063 5.4049 0 0 0 7.4082031 2.59375 A 5.0063 5.4049 0 0 0 3.1035156 8.6621094 A 5.0063 5.4049 0 0 0 3.4394531 10.007812 C 1.5583531 12.437913 -0.39024062 15.204966 0.068359375 15.822266 C 0.56440938 16.490066 3.2945125 15.180437 6.1953125 12.960938 A 5.0063 5.4049 0 0 0 8.7265625 13.308594 A 5.0063 5.4049 0 0 0 13.029297 7.2402344 A 5.0063 5.4049 0 0 0 12.798828 6.2050781 C 14.958828 3.3448781 16.383803 0.67740938 15.908203 0.037109375 C 15.892043 0.015109375 15.857857 0.004 15.810547 0 z M 3.6230469 10.431641 A 5.0063 5.4049 0 0 0 5.1503906 12.335938 C 3.6865906 13.523537 2.6097312 14.092766 2.2695312 13.634766 C 1.9319513 13.180266 2.4730569 12.048641 3.6230469 10.431641 z"/>
</svg>
